X:1
T:Godfather
C:Nino Rota
Q:1/4=60
M:3/4
K:Eb
L:1/4
V:1 score=_E
(c2 =B/c/ | _d2 c) | (c/A/- A2- | A3) |
(c2 =B/c/ | _d2 c) | (c/G/- G2- | G3) |
(c2 =B/c/ | e2 c | =B2 d | c3) |
(A G A | c2 =B | G3- | G3) |
